T: Bimíd Ag Ól
M: 6/8
L: 1/8
K: Gmaj
|:DGA ~B3|cBc ~d3|DGA B2 d|cAG AGF|!DGA ~B3|cBc def|~g3 afd|1cAF G2 E:|2cAF G2 D|!|:GBd ~g3|gfd ~f3|def ~g3|gfd cAF|!GBd ~g3|(3fga g fga|abg afd|cAFG2 D:|!(3EFG A A2 c|BAG cAG|(3EFG A ded|cAF G2 D|!(3EFG A cAG|Ade ~f3|gag fed|1cAF G2 D:|2cAF G3||
